korla/apps/symbolic/libreoffice-impress-symbolic.svg

<svg style="clip-rule:evenodd;fill-rule:evenodd;stroke-linejoin:round;stroke-miterlimit:2" version="1.1" viewBox="0 0 16 16" xmlns="http://www.w3.org/2000/svg">
 <path d="m4.5 8c-0.28 0-0.5 0.22-0.5 0.5v4c0 0.28 0.22 0.5 0.5 0.5h7c0.28 0 0.5-0.22 0.5-0.5v-4c0-0.28-0.22-0.5-0.5-0.5h-7zm1 1c0.28 0 0.5 0.22 0.5 0.5s-0.22 0.5-0.5 0.5-0.5-0.22-0.5-0.5 0.22-0.5 0.5-0.5zm2 0h3c0.28 0 0.5 0.22 0.5 0.5s-0.22 0.5-0.5 0.5h-3c-0.28 0-0.5-0.22-0.5-0.5s0.22-0.5 0.5-0.5zm-2 2c0.28 0 0.5 0.22 0.5 0.5s-0.22 0.5-0.5 0.5-0.5-0.22-0.5-0.5 0.22-0.5 0.5-0.5zm2 0h3c0.28 0 0.5 0.22 0.5 0.5s-0.22 0.5-0.5 0.5h-3c-0.28 0-0.5-0.22-0.5-0.5s0.22-0.5 0.5-0.5z" style="fill-rule:nonzero;fill:rgb(223,223,223)"/>
 <g transform="matrix(.571429 0 0 .571429 -3.90171 -1.11714)">
  <path d="m9.828 1.955v28h22v-19.314l-7.856-8.686h-14.144zm2 2h10.346v8.433l7.654 0.052v15.515h-18v-24zm12.346 1.201 4.452 5.284-4.452-0.052v-5.232z" style="fill-rule:nonzero;fill:rgb(223,223,223)"/>
 </g>
</svg>

<svg xmlns="http://www.w3.org/2000/svg" width="16" height="16" version="1.1">
 <path style="fill:#dfdfdf" d="M 2,0 C 1.4477,0 1,0.44772 1,1 V 15 C 1,15.552 1.4477,16 2,16 H 14 C 14.556,16 15,15.548 15,15 V 7.5 C 15,7.2426 14.879,6.8786 14.69,6.69 L 8.28,0.275 C 8.0925,0.08746 7.7701,0 7.5,0 Z M 3,2 H 7 L 13,8 V 14 H 3 Z"/>
 <path style="fill:#dfdfdf" d="M 11.5,0 C 10.948,0 10.807,0.5146 11.146,0.85352 L 14.146,3.8535 C 14.497,4.2041 15,3.942 15,3.5 V 0.5 C 15,0.21996 14.78,0 14.5,0 Z"/>
 <path style="fill:#dfdfdf" d="M 4.5,8 C 4.22,8 4,8.22 4,8.5 V 12.5 C 4,12.78 4.22,13 4.5,13 H 11.5 C 11.78,13 12,12.78 12,12.5 V 8.5 C 12,8.22 11.78,8 11.5,8 Z M 5.5,9 C 5.78,9 6,9.22 6,9.5 6,9.78 5.78,10 5.5,10 5.22,10 5,9.78 5,9.5 5,9.22 5.22,9 5.5,9 Z M 7.5,9 H 10.5 C 10.78,9 11,9.22 11,9.5 11,9.78 10.78,10 10.5,10 H 7.5 C 7.22,10 7,9.78 7,9.5 7,9.22 7.22,9 7.5,9 Z M 5.5,11 C 5.78,11 6,11.22 6,11.5 6,11.78 5.78,12 5.5,12 5.22,12 5,11.78 5,11.5 5,11.22 5.22,11 5.5,11 Z M 7.5,11 H 10.5 C 10.78,11 11,11.22 11,11.5 11,11.78 10.78,12 10.5,12 H 7.5 C 7.22,12 7,11.78 7,11.5 7,11.22 7.22,11 7.5,11 Z"/>
</svg>
